common/src/main/resources/glyphs/other/implementedHook.svg

<svg xmlns="http://www.w3.org/2000/svg" width="12" height="12" viewBox="0 0 24 24"><path fill="#64B5F6" d="M18 6a3.99 3.99 0 0 1-3 3.86V17a5 5 0 0 1-5 5 5 5 0 0 1-5-5v-5l5 5H7a3 3 0 0 0 3 3 3 3 0 0 0 3-3V9.86c-1.77-.46-3-2.06-3-3.89C10 3.76 11.8 2 14 2c2.22 0 4 1.79 4 4m-4 2a2 2 0 0 0 2-2 2 2 0 0 0-2-2 2 2 0 0 0-2 2 2 2 0 0 0 2 2"/><path fill="#FFEE58" d="M16.5 0h3v6.75l2.625-2.625L23.94 5.94 18 11.88l-5.94-5.94 1.815-1.815L16.5 6.75z"/></svg>

<!--
  - The MIT License (MIT)
  -
  - Copyright (c) 2015-2022 Elior "Mallowigi" Boukhobza
  -
  - Permission is hereby granted, free of charge, to any person obtaining a copy
  - of this software and associated documentation files (the "Software"), to deal
  - in the Software without restriction, including without limitation the rights
  - to use, copy, modify, merge, publish, distribute, sublicense, and/or sell
  - copies of the Software, and to permit persons to whom the Software is
  - furnished to do so, subject to the following conditions:
  -
  - The above copyright notice and this permission notice shall be included in all
  - copies or substantial portions of the Software.
  -
  - THE SOFTWARE IS PROVIDED "AS IS", WITHOUT WARRANTY OF ANY KIND, EXPRESS OR
  - IMPLIED, INCLUDING BUT NOT LIMITED TO THE WARRANTIES OF MERCHANTABILITY,
  - FITNESS FOR A PARTICULAR PURPOSE AND NONINFRINGEMENT. IN NO EVENT SHALL THE
  - AUTHORS OR COPYRIGHT HOLDERS BE LIABLE FOR ANY CLAIM, DAMAGES OR OTHER
  - LIABILITY, WHETHER IN AN ACTION OF CONTRACT, TORT OR OTHERWISE, ARISING FROM,
  - OUT OF OR IN CONNECTION WITH THE SOFTWARE OR THE USE OR OTHER DEALINGS IN THE
  - SOFTWARE.
  -
  -
  -->


<svg xmlns="http://www.w3.org/2000/svg" version="1.1" width="12px" height="12px" viewBox="0 0 24 24">
  <path fill="#64B5F6"
        d="M18,6C18,7.82 16.76,9.41 15,9.86V17A5,5 0 0,1 10,22A5,5 0 0,1 5,17V12L10,17H7A3,3 0 0,0 10,20A3,3 0 0,0 13,17V9.86C11.23,9.4 10,7.8 10,5.97C10,3.76 11.8,2 14,2C16.22,2 18,3.79 18,6M14,8A2,2 0 0,0 16,6A2,2 0 0,0 14,4A2,2 0 0,0 12,6A2,2 0 0,0 14,8Z" />
  <path fill="#FFEE58" transform="scale(0.75) translate(12 -4)"
        d="M10,4H14V13L17.5,9.5L19.92,11.92L12,19.84L4.08,11.92L6.5,9.5L10,13V4Z" />
</svg>
